X:91
T:Rvw2/2/91 The Brave Ploughboy
C:Isaac Longhurst, Forest Green, Surrey, May 1904
L:1/8
Q:1/4=120
M:6/8
I:linebreak $
K:G
"^(" D | G2 D G2 A | G3 D2 B | B2 A B2 c | d3 z z d |$ e2 c cde | d2 c B2 G | B2 d c2 B | 
A3 z z A |$ d2 d dcB | c2 e d2 d/c/ | B2 B BAG | A2 F D2 D |$ G2 G AGA | B2 c dec | B3 A3 | 
G3- G2 |] 



